build/images/icons/advantages-1.svg

<svg width="40" height="40" viewBox="0 0 40 40" fill="none" xmlns="http://www.w3.org/2000/svg">
<g clip-path="url(#clip0)">
<path d="M32.63 15.9874H17.7292C18.4182 15.1954 18.8369 14.1622 18.8369 13.0324C18.8369 10.5463 16.8143 8.52368 14.3281 8.52368C11.8419 8.52368 9.81932 10.5463 9.81932 13.0324C9.81932 14.1622 10.238 15.1954 10.9269 15.9874H7.36996C5.22051 15.9874 3.4718 17.7361 3.4718 19.8856V24.4853C3.4718 24.9159 3.82084 25.265 4.25143 25.265C4.68202 25.265 5.03106 24.9159 5.03106 24.4853V19.8856C5.03106 18.5959 6.08029 17.5467 7.36996 17.5467H29.1996C30.4893 17.5467 31.5385 18.5959 31.5385 19.8856V24.0956H23.4304C21.2809 24.0956 19.5322 25.8443 19.5322 27.9937C19.5322 30.1432 21.2809 31.8919 23.4304 31.8919H31.5385V36.1019C31.5385 37.3916 30.4893 38.4408 29.1996 38.4408H7.36996C6.08029 38.4408 5.03106 37.3916 5.03106 36.1019V31.496C5.03106 31.0654 4.68202 30.7164 4.25143 30.7164C3.82084 30.7164 3.4718 31.0654 3.4718 31.496V36.1019C3.4718 38.2514 5.22051 40.0001 7.36996 40.0001H32.63C34.7795 40.0001 36.5282 38.2514 36.5282 36.1019V19.8856C36.5282 17.7361 34.7795 15.9874 32.63 15.9874ZM14.3281 10.083C15.9545 10.083 17.2776 11.4061 17.2776 13.0325C17.2776 14.6589 15.9545 15.982 14.3281 15.982C12.7018 15.982 11.3786 14.6589 11.3786 13.0325C11.3786 11.4061 12.7017 10.083 14.3281 10.083ZM32.3161 17.5467H32.63C33.9197 17.5467 34.9689 18.5959 34.9689 19.8856V24.0956H33.0978V19.8856C33.0978 19.0087 32.8066 18.1987 32.3161 17.5467ZM21.0915 27.9937C21.0915 26.7041 22.1407 25.6548 23.4304 25.6548H34.9689V30.3326H23.4304C22.1407 30.3326 21.0915 29.2834 21.0915 27.9937ZM32.63 38.4408H32.3161C32.8066 37.7888 33.0978 36.9788 33.0978 36.1019V31.8919H34.9689V36.1019C34.9689 37.3916 33.9197 38.4408 32.63 38.4408Z" fill="#EAC57E"/>
<path d="M23.2308 27.2139C23.025 27.2139 22.8238 27.2973 22.6788 27.4423C22.5338 27.5873 22.4512 27.7885 22.4512 27.9935C22.4512 28.1985 22.5338 28.3997 22.6788 28.5447C22.8246 28.6897 23.025 28.7731 23.2308 28.7731C23.4359 28.7731 23.6362 28.6897 23.782 28.5447C23.927 28.3997 24.0104 28.1985 24.0104 27.9935C24.0104 27.7885 23.927 27.5873 23.782 27.4423C23.637 27.2972 23.4359 27.2139 23.2308 27.2139Z" fill="#EAC57E"/>
<path d="M25.6718 10.7324C28.158 10.7324 30.1806 8.70977 30.1806 6.22361C30.1806 3.73752 28.158 1.71484 25.6718 1.71484C23.1857 1.71484 21.1631 3.73744 21.1631 6.22361C21.1631 8.70977 23.1857 10.7324 25.6718 10.7324ZM25.6718 3.27418C27.2981 3.27418 28.6213 4.5973 28.6213 6.22369C28.6213 7.85007 27.2982 9.17319 25.6718 9.17319C24.0455 9.17319 22.7223 7.85007 22.7223 6.22369C22.7223 4.5973 24.0455 3.27418 25.6718 3.27418Z" fill="#EAC57E"/>
<path d="M18.0573 7.68568C18.4879 7.68568 18.837 7.33664 18.837 6.90605V0.779631C18.837 0.349041 18.4879 0 18.0573 0C17.6268 0 17.2777 0.349041 17.2777 0.779631V6.90605C17.2777 7.33664 17.6268 7.68568 18.0573 7.68568Z" fill="#EAC57E"/>
<path d="M14.315 4.98964C14.7456 4.98964 15.0947 4.6406 15.0947 4.21001V0.779631C15.0947 0.349041 14.7456 0 14.315 0C13.8844 0 13.5354 0.349041 13.5354 0.779631V4.21001C13.5354 4.6406 13.8844 4.98964 14.315 4.98964Z" fill="#EAC57E"/>
<path d="M4.25143 28.7731C4.45648 28.7731 4.65762 28.6897 4.80263 28.5447C4.94765 28.3997 5.03107 28.1985 5.03107 27.9935C5.03107 27.7885 4.94765 27.5873 4.80263 27.4423C4.65762 27.2973 4.45726 27.2139 4.25143 27.2139C4.04639 27.2139 3.84525 27.2973 3.70023 27.4423C3.55522 27.5873 3.4718 27.7885 3.4718 27.9935C3.4718 28.1985 3.55522 28.3997 3.70023 28.5447C3.84525 28.6897 4.04631 28.7731 4.25143 28.7731Z" fill="#EAC57E"/>
</g>
<defs>
<clipPath id="clip0">
<rect width="40" height="40" fill="white"/>
</clipPath>
</defs>
</svg>

<svg width="40" height="40" fill="none" xmlns="http://www.w3.org/2000/svg"><g clip-path="url(#clip0)" fill="#EAC57E"><path d="M32.63 15.987h-14.9a4.489 4.489 0 001.107-2.955 4.514 4.514 0 00-4.509-4.508 4.514 4.514 0 00-4.509 4.508c0 1.13.419 2.163 1.108 2.955H7.37a3.903 3.903 0 00-3.898 3.899v4.6a.78.78 0 101.56 0v-4.6c0-1.29 1.048-2.34 2.338-2.34H29.2c1.29 0 2.338 1.05 2.338 2.34v4.21H23.43a3.903 3.903 0 00-3.898 3.898 3.903 3.903 0 003.898 3.898h8.108v4.21c0 1.29-1.049 2.339-2.338 2.339H7.37a2.342 2.342 0 01-2.339-2.34v-4.605a.78.78 0 10-1.56 0v4.606A3.903 3.903 0 007.37 40h25.26a3.903 3.903 0 003.898-3.898V19.886a3.903 3.903 0 00-3.898-3.899zm-18.302-5.904a2.953 2.953 0 012.95 2.95 2.953 2.953 0 01-2.95 2.949 2.953 2.953 0 01-2.95-2.95 2.953 2.953 0 012.95-2.949zm17.988 7.464h.314c1.29 0 2.339 1.049 2.339 2.339v4.21h-1.871v-4.21c0-.877-.291-1.687-.782-2.34zM21.091 27.994c0-1.29 1.05-2.34 2.34-2.34h11.538v4.679H23.43a2.342 2.342 0 01-2.338-2.34zM32.63 38.44h-.314c.49-.652.782-1.462.782-2.34v-4.21h1.87v4.21c0 1.29-1.048 2.34-2.338 2.34z"/><path d="M23.23 27.214a.786.786 0 00-.551.228.785.785 0 000 1.103.787.787 0 00.552.228.787.787 0 00.551-.228.786.786 0 00.228-.552.786.786 0 00-.228-.55.785.785 0 00-.551-.23zM25.672 10.732a4.514 4.514 0 004.509-4.508 4.514 4.514 0 00-4.51-4.51 4.514 4.514 0 00-4.508 4.51 4.514 4.514 0 004.509 4.508zm0-7.458a2.953 2.953 0 012.95 2.95 2.953 2.953 0 01-2.95 2.95 2.953 2.953 0 01-2.95-2.95 2.953 2.953 0 012.95-2.95zM18.057 7.686a.78.78 0 00.78-.78V.78a.78.78 0 00-1.56 0v6.126c0 .43.35.78.78.78zM14.315 4.99a.78.78 0 00.78-.78V.78a.78.78 0 00-1.56 0v3.43c0 .43.35.78.78.78zM4.251 28.773a.786.786 0 00.552-.228.786.786 0 00.228-.552.784.784 0 00-.78-.78.786.786 0 00-.55.23.786.786 0 00-.23.55.785.785 0 00.78.78z"/></g><defs><clipPath id="clip0"><path fill="#fff" d="M0 0h40v40H0z"/></clipPath></defs></svg>
